X: 125
T:Paddy's Polka  No.2
M:2/4
L:1/16
C:Trad
S:Josephine Marsh
R:Polka
Z:Emma Millman
K:G
D4 G3A|B2d2 B2dB|A2G2 B2A2|A2G2 E2G2|
D4 G3A|B2d2 B2dB|A2G2 BdBA|G8:||!
g2bg e2ge|d2B2 d4|G3A B2G2|A2G2 E2G2|
D4 G3A|B2d2 B2dB|A2G2 BdBA|G8:||
<end>
<start>
